assets/banner-wave.svg

<svg height="62" width="1440" xmlns="http://www.w3.org/2000/svg" xmlns:xlink="http://www.w3.org/1999/xlink"><mask id="a" fill="#fff"><path d="m0 0h1440v68h-1440z" fill="#fff" fill-rule="evenodd"/></mask><g fill="#fff" fill-rule="evenodd" mask="url(#a)"><path d="m0 14h155c102 0 424.952 30 565 30 158.573 0 296.743-30 593-30h127v48h-1440z"/><path d="m-107 .734h196.118c129.058 0 537.682 35.333 714.882 35.333 200.64 0 375.462-35.333 750.31-35.333h160.69v56.532h-1822z" opacity=".591"/><path d="m1822 4.734h-196.118c-129.058 0-537.682 35.333-714.882 35.333-200.64 0-375.462-35.333-750.31-35.333h-160.69v56.532h1822z" opacity=".591"/></g></svg>

<svg width="1440" height="62" xmlns="http://www.w3.org/2000/svg" xmlns:xlink="http://www.w3.org/1999/xlink"><defs><path id="a" d="M0 0h1440v68H0z"/></defs><g fill="none" fill-rule="evenodd"><mask id="b" fill="#fff"><use xlink:href="#a"/></mask><g mask="url(#b)" fill="#FFF"><path d="M0 14h155c102 0 424.952 30 565 30 158.573 0 296.743-30 593-30h127v48H0V14z"/><path d="M-107 .734H89.118C218.176.734 626.8 36.067 804 36.067c200.64 0 375.462-35.333 750.31-35.333H1715v56.532H-107V.734z" opacity=".591"/><path d="M1822 4.734h-196.118C1496.824 4.734 1088.2 40.067 911 40.067c-200.64 0-375.462-35.333-750.31-35.333H0v56.532h1822V4.734z" opacity=".591"/></g></g></svg>
